X: 486
P: Longways for as many as will
M: 6/4
L: 1/4
K: D
a |\
f>ef Bcd | e2e e2a/g/ |\
f>ef ABc | d2d d2 :|\
|: d/=c/ |\
fga a2^g | a2a a>gf |\
eg2 f>ed | Be2 c>BA |\
afg e>dc | d2d d2 :|

